; generated by PrusaSlicer 2.1.0-rc+win64 on 2019-10-18 at 20:33:23

; 

; external perimeters extrusion width = 0.45mm
; perimeters extrusion width = 0.45mm
; infill extrusion width = 0.45mm
; solid infill extrusion width = 0.45mm
; top infill extrusion width = 0.40mm
; first layer extrusion width = 0.40mm

M107
M190 S60 ; set bed temperature and wait for it to be reached
M104 S220 ; set temperature
G28 ; home all axes
G1 Z5 F5000 ; lift nozzle
G90; absolute position
M109 S220 ; set temperature and wait for it to be reached
G21 ; set units to millimeters
G90 ; use absolute coordinates
M82 ; use absolute distances for extrusion
G92 E0
; Filament gcode
G1 E-4.50000 F4800.00000
G92 E0
G1 Z0.200 F6000.000
G1 X43.725 Y43.729
G1 E4.50000 F4800.00000
G1 F2400
G1 X47.887 Y39.814 E4.66624
G1 X50.256 Y37.786 E4.75700
G1 X54.767 Y34.280 E4.92324
G1 X57.330 Y32.474 E5.01448
G1 X62.135 Y29.420 E5.18014
G1 X64.859 Y27.862 E5.27145
G1 X69.949 Y25.265 E5.43773
G1 X72.940 Y23.915 E5.53321
G1 X78.243 Y21.819 E5.69912
G1 X83.665 Y20.053 E5.86503
G1 X86.840 Y19.183 E5.96082
G1 X92.268 Y17.969 E6.12267
G1 X95.499 Y17.405 E6.21811
G1 X101.169 Y16.692 E6.38439
G1 X106.878 Y16.328 E6.55084
G1 X110.001 Y16.275 E6.64174
G1 X115.709 Y16.450 E6.80789
G1 X118.830 Y16.692 E6.89899
G1 X124.495 Y17.404 E7.06512
G1 X127.722 Y17.967 E7.16044
G1 X133.280 Y19.213 E7.32618
G1 X138.782 Y20.805 E7.49283
G1 X141.892 Y21.869 E7.58848
G1 X147.059 Y23.914 E7.75018
G1 X150.053 Y25.266 E7.84577
G1 X155.142 Y27.863 E8.01200
G1 X157.861 Y29.418 E8.10314
G1 X162.669 Y32.474 E8.26890
G1 X165.232 Y34.280 E8.36015
G1 X169.740 Y37.782 E8.52624
G1 X174.029 Y41.557 E8.69250
G1 X176.271 Y43.725 E8.78325
G1 X180.186 Y47.886 E8.94949
G1 X182.215 Y50.256 E9.04025
G1 X185.720 Y54.767 E9.20649
G1 X187.526 Y57.330 E9.29773
G1 X190.580 Y62.135 E9.46339
G1 X192.138 Y64.859 E9.55470
G1 X194.732 Y69.942 E9.72074
G1 X196.085 Y72.940 E9.81645
G1 X198.183 Y78.249 E9.98256
G1 X199.951 Y83.678 E10.14870
G1 X200.816 Y86.837 E10.24399
G1 X202.032 Y92.272 E10.40605
G1 X202.595 Y95.499 E10.50138
G1 X203.308 Y101.169 E10.66764
G1 X203.550 Y104.291 E10.75877
G1 X203.725 Y109.993 E10.92475
G1 X203.672 Y113.121 E11.01577
G1 X203.309 Y118.821 E11.18196
G1 X202.597 Y124.487 E11.34812
G1 X202.062 Y127.576 E11.43935
G1 X200.824 Y133.132 E11.60498
G1 X200.000 Y136.161 E11.69633
G1 X198.237 Y141.597 E11.86261
G1 X197.077 Y144.666 E11.95808
G1 X194.806 Y149.904 E12.12420
G1 X192.216 Y154.996 E12.29042
G1 X190.593 Y157.843 E12.38577
G1 X187.614 Y162.538 E12.54757
G1 X185.729 Y165.221 E12.64298
G1 X182.223 Y169.734 E12.80925
G1 X180.189 Y172.109 E12.90025
G1 X176.275 Y176.271 E13.06650
G1 X172.113 Y180.186 E13.23274
G1 X169.744 Y182.215 E13.32350
G1 X165.233 Y185.720 E13.48974
G1 X162.670 Y187.526 E13.58098
G1 X157.865 Y190.580 E13.74663
G1 X155.141 Y192.138 E13.83795
G1 X150.058 Y194.732 E14.00399
G1 X147.060 Y196.085 E14.09970
G1 X141.751 Y198.183 E14.26581
G1 X136.322 Y199.951 E14.43195
G1 X133.163 Y200.816 E14.52724
G1 X127.728 Y202.032 E14.68930
G1 X124.501 Y202.595 E14.78463
G1 X118.831 Y203.308 E14.95089
G1 X115.709 Y203.550 E15.04201
G1 X110.007 Y203.725 E15.20800
G1 X106.879 Y203.672 E15.29902
G1 X101.179 Y203.309 E15.46521
G1 X95.513 Y202.597 E15.63137
G1 X92.424 Y202.062 E15.72260
G1 X86.868 Y200.824 E15.88823
G1 X83.839 Y200.000 E15.97958
G1 X78.403 Y198.237 E16.14586
G1 X75.334 Y197.077 E16.24133
G1 X70.096 Y194.806 E16.40744
G1 X65.004 Y192.216 E16.57367
G1 X62.157 Y190.593 E16.66901
G1 X57.462 Y187.614 E16.83082
G1 X54.779 Y185.729 E16.92623
G1 X50.266 Y182.223 E17.09250
G1 X47.891 Y180.189 E17.18350
G1 X43.729 Y176.275 E17.34974
G1 X39.814 Y172.113 E17.51599
G1 X37.785 Y169.744 E17.60675
G1 X34.280 Y165.233 E17.77299
G1 X32.474 Y162.670 E17.86423
G1 X29.420 Y157.865 E18.02988
G1 X27.862 Y155.141 E18.12120
G1 X25.265 Y150.051 E18.28748
G1 X23.915 Y147.060 E18.38295
G1 X21.817 Y141.751 E18.54906
G1 X20.049 Y136.322 E18.71520
G1 X19.182 Y133.159 E18.81062
G1 X17.968 Y127.728 E18.97255
G1 X17.405 Y124.501 E19.06787
G1 X16.692 Y118.831 E19.23414
G1 X16.450 Y115.709 E19.32527
G1 X16.275 Y110.003 E19.49137
G1 X16.450 Y104.291 E19.65764
G1 X16.692 Y101.171 E19.74872
G1 X17.404 Y95.505 E19.91488
G1 X17.967 Y92.278 E20.01019
G1 X19.183 Y86.840 E20.17233
G1 X20.047 Y83.683 E20.26758
G1 X21.815 Y78.254 E20.43369
G1 X23.914 Y72.941 E20.59993
G1 X25.266 Y69.947 E20.69551
G1 X27.863 Y64.858 E20.86174
G1 X29.418 Y62.139 E20.95289
G1 X32.474 Y57.331 E21.11864
G1 X34.280 Y54.768 E21.20990
G1 X37.782 Y50.260 E21.37599
G1 X41.557 Y45.971 E21.54225
G1 X43.683 Y43.772 E21.63125
G1 X43.940 Y44.020 F6000.000
G1 F2400
G1 X48.127 Y40.078 E21.79857
G1 X50.492 Y38.054 E21.88916
G1 X54.988 Y34.561 E22.05483
G1 X57.655 Y32.687 E22.14968
G1 X62.336 Y29.716 E22.31098
G1 X65.171 Y28.100 E22.40593
G1 X70.246 Y25.518 E22.57162
G1 X75.470 Y23.253 E22.73731
G1 X78.513 Y22.103 E22.83196
G1 X83.926 Y20.347 E22.99754
G1 X86.947 Y19.524 E23.08864
G1 X92.492 Y18.289 E23.25395
G1 X95.563 Y17.756 E23.34465
G1 X101.213 Y17.047 E23.51035
G1 X106.895 Y16.685 E23.67599
G1 X110.004 Y16.632 E23.76648
G1 X115.692 Y16.807 E23.93206
G1 X118.791 Y17.047 E24.02251
G1 X124.436 Y17.756 E24.18806
G1 X127.647 Y18.316 E24.28290
G1 X133.194 Y19.560 E24.44831
G1 X138.677 Y21.147 E24.61439
G1 X141.771 Y22.205 E24.70955
G1 X146.923 Y24.244 E24.87076
G1 X149.901 Y25.589 E24.96586
G1 X154.973 Y28.177 E25.13152
G1 X157.674 Y29.723 E25.22209
G1 X162.470 Y32.771 E25.38744
G1 X165.018 Y34.566 E25.47812
G1 X169.515 Y38.059 E25.64380
G1 X173.789 Y41.821 E25.80949
G1 X176.021 Y43.979 E25.89983
G1 X179.921 Y48.127 E26.06550
G1 X181.941 Y50.485 E26.15585
G1 X185.434 Y54.982 E26.32152
G1 X187.227 Y57.527 E26.41211
G1 X190.275 Y62.322 E26.57743
G1 X191.822 Y65.026 E26.66810
G1 X194.411 Y70.099 E26.83381
G1 X195.755 Y73.077 E26.92887
G1 X197.848 Y78.373 E27.09457
G1 X199.610 Y83.783 E27.26014
G1 X200.469 Y86.918 E27.35471
G1 X201.682 Y92.345 E27.51651
G1 X202.241 Y95.547 E27.61111
G1 X202.953 Y101.205 E27.77704
G1 X203.193 Y104.308 E27.86759
G1 X203.368 Y109.996 E28.03317
G1 X203.315 Y113.104 E28.12362
G1 X202.954 Y118.782 E28.28916
G1 X202.244 Y124.436 E28.45499
G1 X201.712 Y127.504 E28.54557
G1 X200.477 Y133.049 E28.71087
G1 X199.658 Y136.056 E28.80157
G1 X197.902 Y141.473 E28.96727
G1 X196.747 Y144.530 E29.06234
G1 X194.481 Y149.754 E29.22805
G1 X191.900 Y154.829 E29.39370
G1 X190.286 Y157.661 E29.48856
G1 X187.315 Y162.342 E29.64986
G1 X185.440 Y165.011 E29.74479
G1 X181.946 Y169.508 E29.91049
G1 X179.925 Y171.869 E30.00092
G1 X176.021 Y176.021 E30.16676
G1 X171.873 Y179.922 E30.33243
G1 X169.515 Y181.941 E30.42278
G1 X165.018 Y185.434 E30.58845
G1 X162.473 Y187.227 E30.67903
G1 X157.678 Y190.275 E30.84436
G1 X154.974 Y191.822 E30.93503
G1 X149.901 Y194.411 E31.10074
G1 X146.923 Y195.755 E31.19580
G1 X141.627 Y197.848 E31.36150
G1 X136.217 Y199.610 E31.52707
G1 X133.082 Y200.469 E31.62164
G1 X127.655 Y201.682 E31.78344
G1 X124.453 Y202.241 E31.87804
G1 X118.795 Y202.953 E32.04397
G1 X115.692 Y203.193 E32.13452
G1 X110.004 Y203.368 E32.30010
G1 X106.896 Y203.315 E32.39055
G1 X101.218 Y202.954 E32.55609
G1 X95.564 Y202.244 E32.72192
G1 X92.496 Y201.712 E32.81250
G1 X86.951 Y200.477 E32.97780
G1 X83.944 Y199.658 E33.06850
G1 X78.519 Y197.899 E33.23444
G1 X75.470 Y196.747 E33.32927
G1 X70.246 Y194.481 E33.49498
G1 X65.171 Y191.900 E33.66063
G1 X62.339 Y190.286 E33.75549
G1 X57.658 Y187.315 E33.91679
G1 X54.989 Y185.440 E34.01172
G1 X50.492 Y181.946 E34.17742
G1 X48.131 Y179.925 E34.26785
G1 X43.979 Y176.021 E34.43369
G1 X40.078 Y171.873 E34.59936
G1 X38.054 Y169.508 E34.68995
G1 X34.561 Y165.012 E34.85562
G1 X32.687 Y162.345 E34.95047
G1 X29.716 Y157.664 E35.11177
G1 X28.100 Y154.829 E35.20672
G1 X25.518 Y149.754 E35.37241
G1 X23.253 Y144.530 E35.53810
G1 X22.101 Y141.481 E35.63294
G1 X20.343 Y136.060 E35.79874
G1 X19.524 Y133.053 E35.88942
G1 X18.288 Y127.503 E36.05488
G1 X17.756 Y124.437 E36.14544
G1 X17.047 Y118.787 E36.31114
G1 X16.685 Y113.104 E36.47683
G1 X16.632 Y110.000 E36.56716
G1 X16.807 Y104.308 E36.73285
G1 X17.047 Y101.210 E36.82328
G1 X17.758 Y95.555 E36.98910
G1 X18.318 Y92.345 E37.08393
G1 X19.530 Y86.923 E37.24557
G1 X20.389 Y83.787 E37.34018
G1 X22.152 Y78.373 E37.50588
G1 X24.244 Y73.077 E37.67155
G1 X25.589 Y70.099 E37.76665
G1 X28.177 Y65.027 E37.93231
G1 X29.723 Y62.326 E38.02288
G1 X32.771 Y57.530 E38.18823
G1 X34.566 Y54.982 E38.27891
G1 X38.059 Y50.485 E38.44459
G1 X41.821 Y46.211 E38.61028
G1 X43.898 Y44.063 E38.69722
G1 X44.155 Y44.311 F6000.000
G1 F2400
G1 X48.367 Y40.343 E38.86562
G1 X50.721 Y38.327 E38.95579
G1 X55.203 Y34.847 E39.12089
G1 X57.849 Y32.986 E39.21503
G1 X62.522 Y30.021 E39.37606
G1 X65.338 Y28.415 E39.47037
G1 X70.401 Y25.840 E39.63565
G1 X75.607 Y23.583 E39.80077
G1 X78.634 Y22.439 E39.89494
G1 X84.028 Y20.689 E40.05994
G1 X87.026 Y19.873 E40.15033
G1 X92.562 Y18.639 E40.31537
G1 X95.613 Y18.110 E40.40550
G1 X101.250 Y17.402 E40.57079
G1 X106.912 Y17.042 E40.73586
G1 X110.007 Y16.989 E40.82593
G1 X115.675 Y17.164 E40.99095
G1 X118.760 Y17.403 E41.08099
G1 X124.386 Y18.110 E41.24597
G1 X127.573 Y18.666 E41.34009
G1 X133.100 Y19.904 E41.50492
G1 X138.572 Y21.488 E41.67067
G1 X141.643 Y22.538 E41.76512
G1 X146.786 Y24.574 E41.92606
G1 X149.742 Y25.909 E42.02044
G1 X154.796 Y28.487 E42.18553
G1 X157.488 Y30.027 E42.27576
G1 X162.265 Y33.063 E42.44047
G1 X164.803 Y34.851 E42.53080
G1 X169.289 Y38.336 E42.69608
G1 X173.548 Y42.086 E42.86120
G1 X175.770 Y44.234 E42.95113
G1 X179.657 Y48.367 E43.11623
G1 X181.673 Y50.721 E43.20641
G1 X185.153 Y55.203 E43.37150
G1 X187.014 Y57.849 E43.46564
G1 X189.979 Y62.522 E43.62667
G1 X191.584 Y65.338 E43.72098
G1 X194.160 Y70.401 E43.88626
G1 X196.417 Y75.607 E44.05138
G1 X197.563 Y78.640 E44.14574
G1 X199.313 Y84.034 E44.31073
G1 X200.127 Y87.025 E44.40093
G1 X201.362 Y92.566 E44.56612
G1 X201.890 Y95.614 E44.65611
G1 X202.598 Y101.250 E44.82140
G1 X202.958 Y106.913 E44.98651
G1 X203.011 Y109.999 E45.07631
G1 X202.836 Y115.671 E45.24143
G1 X202.597 Y118.759 E45.33156
G1 X201.889 Y124.394 E45.49681
G1 X201.333 Y127.581 E45.59095
G1 X200.126 Y132.981 E45.75195
G1 X199.270 Y136.108 E45.84628
G1 X197.511 Y141.509 E46.01157
G1 X195.425 Y146.787 E46.17669
G1 X194.091 Y149.742 E46.27105
G1 X191.513 Y154.796 E46.43614
G1 X189.973 Y157.488 E46.52637
G1 X186.937 Y162.265 E46.69108
G1 X185.149 Y164.803 E46.78142
G1 X181.664 Y169.289 E46.94669
G1 X177.914 Y173.548 E47.11181
G1 X175.766 Y175.770 E47.20174
G1 X171.633 Y179.657 E47.36684
G1 X169.279 Y181.673 E47.45702
G1 X164.797 Y185.153 E47.62212
G1 X162.151 Y187.014 E47.71625
G1 X157.478 Y189.979 E47.87728
G1 X154.662 Y191.584 E47.97159
G1 X149.599 Y194.160 E48.13687
G1 X144.393 Y196.417 E48.30199
G1 X141.360 Y197.563 E48.39635
G1 X135.966 Y199.313 E48.56134
G1 X132.975 Y200.127 E48.65154
G1 X127.442 Y201.361 E48.81650
G1 X124.386 Y201.890 E48.90672
G1 X118.750 Y202.598 E49.07201
G1 X113.087 Y202.958 E49.23713
G1 X110.001 Y203.011 E49.32692
G1 X104.329 Y202.836 E49.49204
G1 X101.241 Y202.597 E49.58217
G1 X95.606 Y201.889 E49.74743
G1 X92.419 Y201.333 E49.84156
G1 X87.019 Y200.126 E50.00256
G1 X83.892 Y199.270 E50.09689
G1 X78.491 Y197.511 E50.26218
G1 X73.213 Y195.425 E50.42730
G1 X70.258 Y194.091 E50.52166
G1 X65.204 Y191.513 E50.68675
G1 X62.512 Y189.973 E50.77698
G1 X57.735 Y186.937 E50.94169
G1 X55.197 Y185.149 E51.03203
G1 X50.711 Y181.664 E51.19730
G1 X46.452 Y177.914 E51.36242
G1 X44.230 Y175.766 E51.45235
G1 X40.343 Y171.633 E51.61745
G1 X38.327 Y169.279 E51.70763
G1 X34.847 Y164.797 E51.87273
G1 X32.986 Y162.151 E51.96686
G1 X30.021 Y157.478 E52.12790
G1 X28.415 Y154.662 E52.22220
G1 X25.840 Y149.599 E52.38748
G1 X23.583 Y144.393 E52.55261
G1 X22.437 Y141.360 E52.64696
G1 X20.687 Y135.966 E52.81195
G1 X19.872 Y132.970 E52.90230
G1 X18.639 Y127.442 E53.06711
G1 X18.110 Y124.387 E53.15733
G1 X17.402 Y118.750 E53.32262
G1 X17.042 Y113.087 E53.48774
G1 X16.989 Y109.997 E53.57766
G1 X17.164 Y104.325 E53.74278
G1 X17.403 Y101.241 E53.83280
G1 X18.111 Y95.606 E53.99805
G1 X18.667 Y92.419 E54.09217
G1 X19.875 Y87.015 E54.25330
G1 X20.730 Y83.892 E54.34750
G1 X22.489 Y78.491 E54.51279
G1 X24.574 Y73.214 E54.67790
G1 X25.909 Y70.258 E54.77227
G1 X28.487 Y65.204 E54.93736
G1 X30.027 Y62.512 E55.02759
G1 X33.063 Y57.735 E55.19230
G1 X34.851 Y55.197 E55.28264
G1 X38.336 Y50.711 E55.44791
G1 X42.086 Y46.452 E55.61303
G1 X44.113 Y44.354 E55.69791
G1 X44.370 Y44.602 F6000.000
G1 F2400
G1 X48.608 Y40.607 E55.86739
G1 X50.939 Y38.611 E55.95669
G1 X55.411 Y35.137 E56.12145
G1 X57.932 Y33.360 E56.21121
G1 X62.695 Y30.334 E56.37541
G1 X65.375 Y28.801 E56.46525
G1 X70.413 Y26.230 E56.62982
G1 X73.350 Y24.904 E56.72359
G1 X78.607 Y22.827 E56.88805
G1 X83.980 Y21.077 E57.05248
G1 X87.092 Y20.224 E57.14636
G1 X92.485 Y19.018 E57.30716
G1 X95.651 Y18.465 E57.40070
G1 X101.270 Y17.759 E57.56549
G1 X106.928 Y17.399 E57.73046
G1 X110.001 Y17.347 E57.81988
G1 X115.658 Y17.521 E57.98456
G1 X118.721 Y17.758 E58.07396
G1 X124.335 Y18.463 E58.23860
G1 X127.506 Y19.016 E58.33224
G1 X133.014 Y20.251 E58.49650
G1 X138.467 Y21.829 E58.66168
G1 X141.515 Y22.872 E58.75541
G1 X146.649 Y24.904 E58.91609
G1 X149.583 Y26.228 E59.00975
G1 X154.627 Y28.802 E59.17450
G1 X157.301 Y30.332 E59.26415
G1 X162.067 Y33.360 E59.42846
G1 X164.589 Y35.137 E59.51822
G1 X169.058 Y38.608 E59.68285
G1 X173.308 Y42.350 E59.84763
G1 X175.514 Y44.482 E59.93692
G1 X179.393 Y48.607 E60.10168
G1 X181.389 Y50.939 E60.19099
G1 X184.863 Y55.411 E60.35575
G1 X186.635 Y57.926 E60.44528
G1 X189.666 Y62.695 E60.60970
G1 X191.199 Y65.375 E60.69954
G1 X193.770 Y70.413 E60.86411
G1 X195.096 Y73.350 E60.95788
G1 X197.175 Y78.613 E61.12253
G1 X198.928 Y83.993 E61.28718
G1 X199.775 Y87.089 E61.38057
G1 X200.983 Y92.489 E61.54159
G1 X201.535 Y95.652 E61.63500
G1 X202.241 Y101.270 E61.79978
G1 X202.479 Y104.342 E61.88942
G1 X202.653 Y109.993 E62.05394
G1 X202.602 Y113.070 E62.14348
G1 X202.243 Y118.712 E62.30798
G1 X201.537 Y124.336 E62.47290
G1 X201.011 Y127.367 E62.56242
G1 X199.782 Y132.882 E62.72682
G1 X198.971 Y135.862 E62.81669
G1 X197.226 Y141.242 E62.98126
G1 X196.087 Y144.256 E63.07503
G1 X193.836 Y149.448 E63.23968
G1 X191.269 Y154.495 E63.40443
G1 X189.679 Y157.284 E63.49786
G1 X186.719 Y161.949 E63.65862
G1 X184.871 Y164.579 E63.75213
G1 X181.397 Y169.051 E63.91692
G1 X179.397 Y171.388 E64.00643
G1 X175.518 Y175.514 E64.17121
G1 X171.392 Y179.393 E64.33598
G1 X169.061 Y181.389 E64.42528
G1 X164.589 Y184.863 E64.59004
G1 X162.074 Y186.635 E64.67957
G1 X157.305 Y189.666 E64.84400
G1 X154.625 Y191.199 E64.93383
G1 X149.587 Y193.770 E65.09840
G1 X146.650 Y195.096 E65.19217
G1 X141.387 Y197.175 E65.35682
G1 X136.007 Y198.928 E65.52148
G1 X132.911 Y199.775 E65.61486
G1 X127.511 Y200.983 E65.77588
G1 X124.348 Y201.535 E65.86930
G1 X118.730 Y202.241 E66.03408
G1 X115.658 Y202.479 E66.12371
G1 X110.007 Y202.653 E66.28824
G1 X106.930 Y202.602 E66.37778
G1 X101.288 Y202.243 E66.54227
G1 X95.664 Y201.537 E66.70719
G1 X92.633 Y201.011 E66.79671
G1 X87.118 Y199.782 E66.96111
G1 X84.138 Y198.971 E67.05099
G1 X78.758 Y197.226 E67.21555
G1 X75.744 Y196.087 E67.30932
G1 X70.552 Y193.836 E67.47398
G1 X65.505 Y191.269 E67.63873
G1 X62.716 Y189.679 E67.73216
G1 X58.051 Y186.719 E67.89292
G1 X55.421 Y184.871 E67.98642
G1 X50.949 Y181.397 E68.15121
G1 X48.612 Y179.397 E68.24072
G1 X44.486 Y175.518 E68.40551
G1 X40.607 Y171.392 E68.57027
G1 X38.611 Y169.061 E68.65957
G1 X35.137 Y164.589 E68.82433
G1 X33.365 Y162.074 E68.91386
G1 X30.334 Y157.305 E69.07829
G1 X28.801 Y154.625 E69.16812
G1 X26.230 Y149.587 E69.33269
G1 X24.904 Y146.650 E69.42646
G1 X22.825 Y141.387 E69.59111
G1 X21.072 Y136.007 E69.75577
G1 X20.224 Y132.907 E69.84928
G1 X19.017 Y127.511 E70.01017
G1 X18.465 Y124.348 E70.10359
G1 X17.759 Y118.730 E70.26837
G1 X17.521 Y115.658 E70.35800
G1 X17.346 Y110.002 E70.52266
G1 X17.398 Y106.930 E70.61207
G1 X17.758 Y101.279 E70.77681
G1 X18.465 Y95.656 E70.94173
G1 X19.016 Y92.494 E71.03513
G1 X20.222 Y87.098 E71.19600
G1 X21.071 Y83.997 E71.28955
G1 X22.823 Y78.617 E71.45420
